X: 42203
T: Waverly
R: reel
M: 4/4
K: Gminor
|:B,2C2 E2FE|GEFE GBBG|~B2Bc ~G2GF|EGFE CEEC|
B,2C2 E2FE|GEFE GBBG|cdcB ~G2~F2|EGFE CEEC:|
|:[M:6/4]de{f}ed edcB FGB2|[M:4/4]cdcB ~G2~F2|EGFE CEE2|
[M:6/4
de{f}ed edcB FGB2|[M:4/4]cdcB ~G2~F2|EGFE CEE2:|

